public/icons/boxes.svg

<svg width="34" height="35" viewBox="0 0 34 35" fill="none" xmlns="http://www.w3.org/2000/svg">
<path d="M14.1667 3.3042C12.6019 3.3042 11.3333 4.57273 11.3333 6.13753V11.8042C11.3333 13.369 12.6019 14.6375 14.1667 14.6375H19.8333C21.3981 14.6375 22.6667 13.369 22.6667 11.8042V6.13753C22.6667 4.57273 21.3981 3.3042 19.8333 3.3042H14.1667Z" fill="#736AE4" fill-opacity="0.25"/>
<path d="M4.25 20.3042C4.25 18.7394 5.51853 17.4709 7.08333 17.4709H12.75C14.3148 17.4709 15.5833 18.7394 15.5833 20.3042V25.9709C15.5833 27.5357 14.3148 28.8042 12.75 28.8042H7.08333C5.51853 28.8042 4.25 27.5357 4.25 25.9709V20.3042Z" fill="#736AE4" fill-opacity="0.25"/>
<path d="M18.4167 20.3042C18.4167 18.7394 19.6852 17.4709 21.25 17.4709H26.9167C28.4815 17.4709 29.75 18.7394 29.75 20.3042V25.9709C29.75 27.5357 28.4815 28.8042 26.9167 28.8042H21.25C19.6852 28.8042 18.4167 27.5357 18.4167 25.9709V20.3042Z" fill="#736AE4" fill-opacity="0.25"/>
<path d="M15.5833 3.3042H18.4167V6.13753C18.4167 6.91994 17.7824 7.5542 17 7.5542C16.2176 7.5542 15.5833 6.91994 15.5833 6.13753V3.3042Z" fill="#736AE4"/>
<path d="M8.5 17.4709H11.3333V20.3042C11.3333 21.0866 10.6991 21.7209 9.91667 21.7209C9.13426 21.7209 8.5 21.0866 8.5 20.3042V17.4709Z" fill="#736AE4"/>
<path d="M25.5 17.4709H22.6667V20.3042C22.6667 21.0866 23.3009 21.7209 24.0833 21.7209C24.8657 21.7209 25.5 21.0866 25.5 20.3042V17.4709Z" fill="#736AE4"/>
</svg>

<svg width="34" height="35" fill="none" xmlns="http://www.w3.org/2000/svg"><path d="M14.167 3.304a2.833 2.833 0 0 0-2.834 2.834v5.666a2.833 2.833 0 0 0 2.834 2.833h5.666a2.833 2.833 0 0 0 2.834-2.833V6.138a2.833 2.833 0 0 0-2.834-2.834h-5.666ZM4.25 20.304a2.833 2.833 0 0 1 2.833-2.833h5.667a2.833 2.833 0 0 1 2.833 2.833v5.667a2.833 2.833 0 0 1-2.833 2.833H7.083a2.833 2.833 0 0 1-2.833-2.833v-5.667ZM18.417 20.304a2.833 2.833 0 0 1 2.833-2.833h5.667a2.833 2.833 0 0 1 2.833 2.833v5.667a2.833 2.833 0 0 1-2.833 2.833H21.25a2.833 2.833 0 0 1-2.833-2.833v-5.667Z" fill="#736AE4" fill-opacity=".25"/><path d="M15.583 3.304h2.834v2.834a1.417 1.417 0 0 1-2.834 0V3.304ZM8.5 17.47h2.833v2.834a1.417 1.417 0 1 1-2.833 0v-2.833ZM25.5 17.47h-2.833v2.834a1.417 1.417 0 1 0 2.833 0v-2.833Z" fill="#736AE4"/></svg>
